assets/awsdynamodbglobalsecondaryindex/original.svg

<svg height="48" viewBox="0 0 48 48" width="48" xmlns="http://www.w3.org/2000/svg"><path d="m22.901 11.836h22.899v-9.836h-22.899zm1.999-2h18.899v-5.837h-18.899zm-12.45 2h8.967v-9.836h-8.967zm2.001-2h4.966v-5.837h-4.966zm-12.451 2h8.967v-9.836h-8.967zm2-2h4.967v-5.837h-4.967zm18.901 13.322h22.899v-9.838h-22.899zm1.999-2.001h18.899v-5.837h-18.899zm-12.45 2.001h8.967v-9.838h-8.967zm2.001-2.001h4.966v-5.837h-4.966zm-12.451 2.001h8.967v-9.838h-8.967zm2-2.001h4.967v-5.837h-4.967zm18.901 13.321h22.899v-9.837h-22.899zm1.999-2h18.899v-5.837h-18.899zm-12.45 2h8.967v-9.837h-8.967zm2.001-2h4.966v-5.837h-4.966zm-12.451 2h8.967v-9.837h-8.967zm2-2h4.967v-5.837h-4.967zm18.901 13.321h22.899v-9.838h-22.899zm1.999-2h18.899v-5.838h-18.899zm-12.45 2h8.967v-9.838h-8.967zm2.001-2h4.966v-5.838h-4.966zm-12.451 2h8.967v-9.838h-8.967zm2-2h4.967v-5.838h-4.967z" fill="#c925d1" fill-rule="evenodd"/></svg>

<svg xmlns="http://www.w3.org/2000/svg" width="48" height="48" viewBox="0 0 48 48"><title>Icon-Resource/Database/Res_Amazon-DynamoDB_Global-secondary-index_48</title><g id="Icon-Resource/Database/Res_Amazon-DynamoDB_Global-secondary-index_48" fill="none" fill-rule="evenodd" stroke="none" stroke-width="1"><path id="Amazon-DATABASE_Amazon-DynamoDB_Global-Secondary-Index_Resource-Icon_light-bg" fill="#c925d1" d="M22.901 11.836H45.8V2H22.901zm1.999-2h18.899V3.999H24.9zm-12.45 2h8.967V2H12.45zm2.001-2h4.966V3.999h-4.966zM2 11.836h8.967V2H2zm2-2h4.967V3.999H4zm18.901 13.322H45.8V13.32H22.901zm1.999-2.001h18.899V15.32H24.9zm-12.45 2.001h8.967V13.32H12.45zm2.001-2.001h4.966V15.32h-4.966zM2 23.158h8.967V13.32H2zm2-2.001h4.967V15.32H4zm18.901 13.321H45.8v-9.837H22.901zm1.999-2h18.899v-5.837H24.9zm-12.45 2h8.967v-9.837H12.45zm2.001-2h4.966v-5.837h-4.966zM2 34.478h8.967v-9.837H2zm2-2h4.967v-5.837H4zm18.901 13.321H45.8v-9.838H22.901zm1.999-2h18.899v-5.838H24.9zm-12.45 2h8.967v-9.838H12.45zm2.001-2h4.966v-5.838h-4.966zM2 45.799h8.967v-9.838H2zm2-2h4.967v-5.838H4z"/></g></svg>
